!!!SOCIAL_FUNCTION:	bird dance songs
!!!PDT:	1956
!!!OTL: No_131_Catfish_Dance_Song_(e).krn
!!!LANG: Non-Tone
!!!LING_GROUP: Muskogean
!!!REG: Florida
**kern	**kern
*staff2	*staff1
=1-	=1-
=	=
*clefF4	*clefF4
*k[b-]	*k[b-]
*M2/4	*M2/4
4GG/	(16D/LK
.	8.C/J)
4GG/	4C/
=2	=2
4GG/	2G\
4GG/	.
=3	=3
2r	8G\L
.	8F\J
.	4D\
=4	=4
2r	(16F\LK
.	8.D\J)
.	4C/
=5||	=5||
*M3/4	*M3/4
2.r	(4G\
.	4A\)
.	4G\
=6	=6
2.r	4.D;\
.	8D\
.	4C/
=7||	=7||
*M2/4	*M2/4
2r	4F\
.	16D/LK
.	8.C/J
=8	=8
2r	2F\
=9||	=9||
*M3/4	*M3/4
2.r	4F\
.	4r
.	8.AA/L
.	16AA/Jk
=10||	=10||
*M2/4	*M2/4
2r	[2D\
=11	=11
2r	4D\]
.	4C/
=12	=12
2r	2C/
==:|!	==:|!
*-	*-
